X: 45
T: Andy Renwick's Ferret
M:C|
L:1/8
C:Gordon Duncan
R:reel
D:Battlefield Band: Celtic Hotel Nomos: I Won't Be Afraid Any More Craobh
D:Rua: The More That's Said the Less the Better
H:Gordon Duncan is a highland piper from Scotland
K:Ador
"Am"cA A/A/A ABcd | eaag agef |\
"G"gd d/d/d egde | degd egdB |
"Am"cA A/A/A ABcd | eaag agef |\
"G"gd d/d/d"Em" efge |[1 "G"dBgB "Am"A2AB :|[2 "G"dBgB "Am"A2Bd ||
"Am"eaag ageg | a2ag agef |\
"G"gd d/d/d egde | degd egdg |
"Am"eaag ageg | a2ag agef |\
"G"gd d/d/d "Em"efge | "G"dBgB "Am"A2Bd |
"Am"eaag ageg | a2ag agef |\
"G"gd d/d/d egde | degd egdB |
"Am"cA A/A/A ABcd | eaag agef |\
"G"gd d/d/d "Em"efge | "G"dBgB "Am"A2AB |
|: "Am"cA A/A/A A2cA | A/A/AcA agef |\
"G"gd d/d/d ^cdcd | d/d/d^cd cddB |
"Am"cA A/A/A A2cA | A/A/A cA agef |\
"G"gd d/d/d "Em"efge |[1 "G"dBgB "Am"A2AB :|[2 "G"dBgB"Am" A2Bd ||
"Am"eaag ageg | ageg a/a/a af |\
"G"gd d/d/d eggd | ^cdgd eggd |
"Am"eaag ageg | ageg a/a/a af |\
"G"gd d/d/d "Em"efge | "G"dBgB "Am"A2Bd |
"Am"eaag ageg | ageg a/a/a af |\
"G"gd d/d/d eggd | ^cdgd eggd |
"Am"cA A/A/A A2cA | A/A/A cA agef |\
"G"gd d/d/d "Em"efge | "G"dBgB "Am"A2AB ||

%%sep 1 1 500

